X:1
T:All Because of Calvary
T:All Because of Calvary
T:Wendell Phillips Loveless, 1940
T:© 1940, renewed 1968 Hope Publishing Company
C:Wendell Phillips Loveless, 1940
Z:© 1940, renewed 1968 Hope Publishing Company
%%score ( 1 2 ) ( 3 4 )
L:1/8
Q:1/4=125
M:6/4
K:Eb
V:1 treble 
V:2 treble 
V:3 bass 
V:4 bass 
V:1
 G4 E2 B,4 E2 | G12 | [EB]3 [E=A][EB][Ec] [EB]4 [CA]2 | [DA]12 | F4 D2 B,4 D2 | F12 | %6
w: All my sins are|gone,|All be- cause of Cal- va-|ry;|Life is filled with|song,|
 [DA]3 [DB][Dc][Dd] [Dc]4 [D_c]2 | [EB]12 | G4 E2 B,4 E2 | G12 | [EB]3 [E=A][DB][DA] [_DB]4 [DE]2 | %11
w: All be- cause of Cal- va-|ry;|Christ my Sav- ior|lives,|Lives from sin to set me|
 c12 | [Ec]2 [Ed]2 [Ae]2 [Ae]2 [Ed]2 [Ec]2 | [EB]3 [Ec][FB][FA] [=EG]6 | %14
w: free;|Some day He’s com- ing, O|won- drous, bless- èd day,|
 [CA][CB] [Fc]2 [Ec]2 [Dc][DB] [DA]2 [DB]2 | [B,G]12 |] %16
w: All, yes, all be- cause of Cal- va-|ry.|
V:2
 G4 E2 B,4 E2 | G12 | x12 | x12 | F4 D2 B,4 D2 | F12 | x12 | x12 | G4 E2 B,4 E2 | G12 | x12 | %11
 (C6 E6) | x12 | x12 | x12 | x12 |] %16
V:3
 E,,12 | G,4 E,2 B,,4 E,2 | E,3 [E,^F,][E,G,][E,A,] [E,G,]4 [E,_G,]2 | [B,,F,]12 | B,,12 | %5
w: ~|All my sins are|gone, ~ ~ ~ ~ ~|~|~|
 F,4 D,2 B,,4 D,2 | [B,,F,]3 [B,,G,][B,,A,][B,,B,] [B,,A,]4 [B,,A,]2 | [E,G,]12 | E,,12 | %9
w: Life is filled with|song ~ ~ ~ ~ ~|~|~|
 G,4 E,2 B,,4 E,2 | [E,G,]3 [E,^F,][B,,G,][B,,F,] [E,G,]4 [E,G,]2 | (E,6 A,6) | %12
w: Christ my Sav- ior|lives * * * * *||
 A,2 [A,B,]2 [A,C]2 [A,C]2 [A,B,]2 A,2 | [E,G,]3 [E,G,][_D,A,][C,A,] [C,B,]6 | %14
w: ||
 [F,A,][F,G,] [F,A,]2 [F,A,]2 [B,,A,][B,,G,] [B,,F,]2 [B,,G,]2 | E,12 |] %16
w: ||
V:4
 x12 | G,4 E,2 B,,4 E,2 | x12 | x12 | x12 | F,4 D,2 B,,4 D,2 | x12 | x12 | x12 | G,4 E,2 B,,4 E,2 | %10
 x12 | A,,12 | A,2 x6 A,2 x2 | x12 | x12 | E,12 |] %16

